X:386
%%etbk:tnset id:110,pos:1,rep:3x,ant:
%%etbk:wsite http://www.thesession.org/tunes/display/52
%%etbk:color #ffff99
%%etbk:pldat 2016-02-04T18:43,2016-02-03T15:49,2016-02-02T16:20,2016-02-01T18:34,2016-01-30T14:09,2016-01-28T18:51,2016-01-27T16:48,2016-01-26T15:59,2016-01-25T19:04,2016-01-24T15:01,2016-01-23T14:39,2016-01-21T18:49,2016-01-20T16:02,2016-01-19T16:52,2016-01-18T18:31,2016-01-17T12:05,2016-01-16T15:45
T: Kid On The Mountain, The
Z: Piano Box Version by Martin Fleischmann
H: Created 2015-03-27 /  Last Modified 2016-01-19
M: 9/8
L: 1/8
R: slip jig
K: Emin
|:!1!~E3 FEF G2 F| !1!~E3 !4!BcA !4!BG!1!D| !1!~E3 FEF !3!G2 A| !5!BAG !2!FAG F!1!E!1!D:|
|:!5!BGB AFD !3!G2!1!G| !1!G!1!AB !3!d!5!g!4!e !3!dB!1!A| !2!BBB AFA !3!G2 A| !5!BAG !2!FAG F!1!E!1!D:|
|:!4!~g3 eBe e2 f|~g3 efg afd| ~g3 efe !2!e2 !4!a|!5!bag fag f!1!e!2!d:|
|:!3!eB/B/B !2!e2f ~g3|eB/B/B efg afd| eB/B/B e2f !4!!3!g2a|bag fag fed:|
|:!3!ed!1!B !2!d!1!B!2!A !1!G2!1!G|!1!G!1!AB !3!d!5!ge dBA|!5!edB !4!dBA G2A|!5!BAG FAG FED:|


